images/alert.svg

<svg width="24" height="20" viewBox="0 0 24 20" fill="none" xmlns="http://www.w3.org/2000/svg">
<path d="M22.6875 14.4876L14.6625 1.5751C14.025 0.712597 13.05 0.225098 12 0.225098C10.9125 0.225098 9.93753 0.712597 9.33753 1.5751L1.31253 14.4876C0.562527 15.5001 0.450027 16.8126 1.01253 17.9376C1.57503 19.0626 2.70003 19.7751 3.97503 19.7751H20.025C21.3 19.7751 22.425 19.0626 22.9875 17.9376C23.55 16.8501 23.4375 15.5001 22.6875 14.4876ZM21.4875 17.1876C21.1875 17.7501 20.6625 18.0876 20.025 18.0876H3.97503C3.33753 18.0876 2.81253 17.7501 2.51253 17.1876C2.25003 16.6251 2.28753 15.9876 2.66253 15.5001L10.6875 2.5876C10.9875 2.1751 11.475 1.9126 12 1.9126C12.525 1.9126 13.0125 2.1376 13.3125 2.5876L21.3375 15.5001C21.7125 15.9876 21.75 16.6251 21.4875 17.1876Z" fill="#E10E0E"/>
<path d="M12.0002 7.2002C11.5502 7.2002 11.1377 7.5752 11.1377 8.0627V12.1502C11.1377 12.6002 11.5127 13.0127 12.0002 13.0127C12.4877 13.0127 12.8627 12.6377 12.8627 12.1502V8.0252C12.8627 7.5752 12.4502 7.2002 12.0002 7.2002Z" fill="#E10E0E"/>
<path d="M12.0002 14C11.5502 14 11.1377 14.375 11.1377 14.8625V15.05C11.1377 15.5 11.5127 15.9125 12.0002 15.9125C12.4877 15.9125 12.8627 15.5375 12.8627 15.05V14.825C12.8627 14.375 12.4502 14 12.0002 14Z" fill="#E10E0E"/>
</svg>

<svg xmlns="http://www.w3.org/2000/svg" width="24" height="20" fill="none"><path fill="#E10E0E" d="M22.688 14.488 14.663 1.575A3.29 3.29 0 0 0 12 .225c-1.088 0-2.062.488-2.662 1.35L1.313 14.488a3.28 3.28 0 0 0-.3 3.45 3.29 3.29 0 0 0 2.962 1.837h16.05c1.275 0 2.4-.712 2.963-1.837.562-1.088.45-2.438-.3-3.45m-1.2 2.7c-.3.562-.825.9-1.463.9H3.975c-.637 0-1.162-.338-1.462-.9-.263-.563-.225-1.2.15-1.688l8.025-12.912c.3-.413.787-.675 1.312-.675s1.012.225 1.313.675L21.337 15.5c.375.488.413 1.125.15 1.688"/><path fill="#E10E0E" d="M12 7.2a.87.87 0 0 0-.862.863v4.087c0 .45.375.863.862.863a.85.85 0 0 0 .863-.863V8.025c0-.45-.413-.825-.863-.825M12 14a.87.87 0 0 0-.862.863v.187c0 .45.375.862.862.862a.85.85 0 0 0 .863-.862v-.225c0-.45-.413-.825-.863-.825"/></svg>
